X:1
T:Title
%%score { 1 | ( 2 3 ) }
L:1/8
M:3/4
K:F
V:1 treble nm="Grand Piano"
V:2 bass 
V:3 bass 
V:1
 z2 z2[Q:1/4=100] c2 | c3 d cA | F2 F2 C2 | D3 [CE] [DF][DG] |[M:2/4] [CA]4 |[M:1/4] c2 | %6
[M:3/4] c3 d cA | F2 F2 C2 | D3 [DB] AG |[M:2/4] F4 |[M:1/4] C2 |[M:3/4] [GB]3 [FA] [EG]E | %12
 F>A c2 A2 | d3 c BA |[M:2/4] [EG]4 |[M:1/4] [Ec]2 |[M:3/4] c3 d cA | F2 F2 C2 | D3 [DB] [FA]G | %19
[M:2/4] F4 |] %20
V:2
 z2 z2 [F,A,F]2 | [F,A,F]3 [F,B,F] [F,A,F][F,CF] | [F,A,C]2 [F,A,C]2 [A,,F,]2 | %3
 [B,,F,B,]3 [B,,F,] [B,,F,][B,,F,] |[M:2/4] [F,,F,]4 |[M:1/4] [F,A,F]2 | %6
[M:3/4] [F,A,F]3 [F,B,F] [F,A,F][F,CF] | [F,A,C]2 [F,A,C]2 [A,,F,]2 | %8
 [B,,F,B,]3 [G,,G,] [C,E,C][C,E,B,] |[M:2/4] [F,A,]4 |[M:1/4] C,2 | %11
[M:3/4] [C,E,]3 [C,F,] [C,G,][C,B,C] | F,->[F,B,F][K:treble] [F,A,F]2 [F,CF]2 | %13
 [B,F]3 [A,CF] [G,CE][K:bass][F,CF] |[M:2/4] [C,C]4 |[M:1/4] [C,B,]2 | %16
[M:3/4] [F,A,F]3 [F,B,F] [F,A,F][F,CF] | [F,A,C]2 [F,A,C]2 [A,,F,]2 | %18
 [B,,F,B,]3 [G,,G,] [C,F,][C,B,C] |[M:2/4] [F,A,C]4 |] %20
V:3
 x6 | x6 | x6 | x6 |[M:2/4] x4 |[M:1/4] x2 |[M:3/4] x6 | x6 | x6 |[M:2/4] x4 |[M:1/4] x2 | %11
[M:3/4] x6 | [A,C]2[K:treble] z2 z2 | x5[K:bass] x |[M:2/4] x4 |[M:1/4] x2 |[M:3/4] x6 | x6 | x6 | %19
[M:2/4] x4 |] %20

